X: 37214
T: Sirkkojen Tanssi
R: barndance
M: 4/4
K: Aminor
|:A2AB c2cd|e2ef e4|f2fe d2a2|e4 e4|fe d2 .B2B2|ed c2 .A2A2|B2 ^GB e2 cB|.A2 A2 A4:|
|:g2ga g2 f2|f2e2 e4|e2ef e2 d2|d2c2 c4|B2 ^GB e2 dc|A2AA e2 dc|B2 ^GB edcB|.A2 A2 A4:|

